X: 305627
M: 2/4
L: 1/8
K: Eb
eg Be | GB EG | FA DF | DD DD |\
eg Be | GB EG | FA DF | EGE H|]
f3 g/f/ | ee gb | ba ff | g2 e2 |\
z |\
f3 g/f/ | ee gb | ba fe | e2 "^D.C."z |]
K: Ebm
z |\


